X: 39177
T: Swindon
R: waltz
M: 3/4
K: Gmajor
dc|B3 A G2|G3 F G2|G2 B2 g2|e4 (3def|g3 d B2|e2 c2 A2|d3 G B2|A4 dc|
B3 A G2|G3 F G2|G2 B2 g2|e4 (3def|g3 d B2|e2 c2 A2|G3 A F2|G4||
d2|g3 d g2|f3 d f2|e2 c2 e2|d4 G2|G3 B d2|d2 G2 B2|d2 G2 B2|A4 (3def|
g3 d g2|f3 d f2|e2 c2 e2|d4 cB|c3 d e2|d2 B2 G2|D2 F2 A2|G4||

